packages/foundations/assets/icons/functional/images/file/notebook_28.svg

<svg width="28" height="28" viewBox="0 0 28 28" fill="none" xmlns="http://www.w3.org/2000/svg">
<g clip-path="url(#clip0_185_982)">
<path fill-rule="evenodd" clip-rule="evenodd" d="M21.1029 1.75C22.7593 1.75 24.0625 3.18307 24.0625 4.90774V23.2651C24.0625 24.8938 22.8298 26.25 21.2607 26.25H8.64711C6.99028 26.25 5.6875 24.8166 5.6875 23.0923V19.25H4.83724C4.34033 19.25 3.9375 18.8582 3.9375 18.375C3.9375 17.8918 4.34033 17.5 4.83724 17.5H5.6875V10.5H4.83724C4.34033 10.5 3.9375 10.1082 3.9375 9.625C3.9375 9.14175 4.34033 8.75 4.83724 8.75H5.6875V4.73406C5.6875 3.16329 6.83308 1.84714 8.3224 1.75514L8.48925 1.75H21.1029ZM10.9375 3.495L8.48925 3.49557C7.93758 3.49557 7.45127 4.03047 7.45127 4.73406L7.4505 8.75H8.28776C8.78467 8.75 9.1875 9.14175 9.1875 9.625C9.1875 10.1082 8.78467 10.5 8.28776 10.5H7.4505V17.5H8.28776C8.78467 17.5 9.1875 17.8918 9.1875 18.375C9.1875 18.8582 8.78467 19.25 8.28776 19.25H7.4505L7.45127 23.0923C7.45127 23.8414 7.94101 24.4271 8.52844 24.4973L8.64711 24.5044L10.9375 24.5041L10.9375 3.495ZM12.6875 24.504L21.2607 24.5044C21.8116 24.5044 22.2987 23.9685 22.2987 23.2651V4.90774C22.2987 4.10851 21.7413 3.49557 21.1029 3.49557L12.6875 3.49493L12.6875 24.504ZM19.7785 16.625C20.2115 16.625 20.5625 17.0168 20.5625 17.5C20.5625 17.9832 20.2115 18.375 19.7785 18.375H15.2215C14.7885 18.375 14.4375 17.9832 14.4375 17.5C14.4375 17.0168 14.7885 16.625 15.2215 16.625H19.7785ZM19.7785 13.125C20.2115 13.125 20.5625 13.5168 20.5625 14C20.5625 14.4832 20.2115 14.875 19.7785 14.875H15.2215C14.7885 14.875 14.4375 14.4832 14.4375 14C14.4375 13.5168 14.7885 13.125 15.2215 13.125H19.7785ZM19.7785 9.625C20.2115 9.625 20.5625 10.0168 20.5625 10.5C20.5625 10.9832 20.2115 11.375 19.7785 11.375H15.2215C14.7885 11.375 14.4375 10.9832 14.4375 10.5C14.4375 10.0168 14.7885 9.625 15.2215 9.625H19.7785Z" fill="#1A1C1F"/>
</g>
<defs>
<clipPath id="clip0_185_982">
<rect width="28" height="28" fill="white"/>
</clipPath>
</defs>
</svg>

<svg xmlns="http://www.w3.org/2000/svg" width="28" height="28" fill="none"><g clip-path="url(#a)"><path fill="#1A1C1F" fill-rule="evenodd" d="M21.103 1.75c1.656 0 2.96 1.433 2.96 3.158v18.357c0 1.629-1.233 2.985-2.802 2.985H8.647c-1.657 0-2.96-1.433-2.96-3.158V19.25h-.85a.89.89 0 0 1-.9-.875c0-.483.403-.875.9-.875h.85v-7h-.85a.89.89 0 0 1-.9-.875c0-.483.403-.875.9-.875h.85V4.734c0-1.57 1.146-2.887 2.635-2.979l.167-.005zM10.937 3.495H8.49c-.551 0-1.038.535-1.038 1.24V8.75h.837c.497 0 .9.392.9.875a.89.89 0 0 1-.9.875H7.45v7h.838c.497 0 .9.392.9.875a.89.89 0 0 1-.9.875H7.45l.001 3.842c0 .75.49 1.335 1.077 1.405l.12.007h2.29zm1.75 21.009h8.574c.55 0 1.038-.536 1.038-1.239V4.908c0-.8-.558-1.412-1.196-1.412l-8.416-.001zm7.092-7.879c.433 0 .784.392.784.875s-.351.875-.784.875h-4.557c-.433 0-.784-.392-.784-.875s.35-.875.784-.875zm0-3.5c.433 0 .784.392.784.875s-.351.875-.784.875h-4.557c-.433 0-.784-.392-.784-.875s.35-.875.784-.875zm0-3.5c.433 0 .784.392.784.875s-.351.875-.784.875h-4.557c-.433 0-.784-.392-.784-.875s.35-.875.784-.875z" clip-rule="evenodd"/></g><defs><clipPath id="a"><path fill="#fff" d="M0 0h28v28H0z"/></clipPath></defs></svg>
